X:1
T:Dretzel, 87.87.77
T:Dretzel, 87.87.77
T:Kornelius Heinrich Dretzel, 1731
T:Public Domain Courtesy of the Cyber Hymnal™
C:Kornelius Heinrich Dretzel, 1731
Z:Public Domain
Z:Courtesy of the Cyber Hymnal™
%%score ( 1 2 ) ( 3 4 )
L:1/8
Q:1/4=113
M:4/4
K:Eb
V:1 treble 
V:2 treble 
V:3 bass 
V:4 bass 
V:1
 [B,E]2 [B,B]2 [EB]2 [FA]2 | [EG]2 [DF]2 E2 [B,E]2 x | [Ee]2 [Fd]2 [Fc]2 [Fd]2 | %3
 [Gc]2 [Fc]2 [DB]4 | E2 [DB]2 [EB]2 [FA]2 | [EG]2 [DF]2 E2 [B,E]2 x | [Ee]2 [Fd]2 [Fc]2 [Fd]2 | %7
 c2 z [DB]4 x | [FB]2 [EB]2 [Ec]2 [Fc]2 | d2 [Ad]2 e4 | [FB]2 [EB]2 A2 [EG]2 | [EF]2 [DF]2 E4 |] %12
V:2
 x8 | x4 E2 x3 | x8 | x8 | E2 x6 | x4 E2 x3 | x8 | F3 (c2 E) x2 | x8 | (FG) x A2 G2 x | %10
 x4 (CD) x2 | x4 E4 |] %12
V:3
 [E,G,]2 [D,F,]2 [C,E,]2 [D,B,]2 | B,3 z A, (A,G,) [E,G,]2 | [C,G,]2 B,2 [F,=A,]2 [D,B,]2 | %3
 [E,B,]2 [F,=A,]2 [B,,B,]4 | [E,G,]2 (B,A,) [C,G,]2 [D,B,]2 | B,3 z A, (A,G,) [E,G,]2 | %6
 (G,A,) [D,B,]2 [E,A,]2 B,2 | [F,B,]2 [F,,=A,]2 [B,,B,]4 | [D,B,]2 [E,G,]2 [C,G,]2 [F,A,]2 | %9
 [B,,B,]2 [B,,B,]2 [E,B,]4 | [D,B,]2 [E,G,]2 [F,A,]2 [G,B,]2 | [A,C]2 B,2 [E,G,]4 |] %12
V:4
 x8 | E,2 (B,,2 E,2) x3 | x2 (D,E,) x4 | x8 | x2 B,,2 x4 | E,2 (B,,2 E,2) x3 | C,2 x3 (D,E,) x | %7
 x8 | x8 | x8 | x8 | x2 B,2 x4 |] %12

